img/ui/options-tool/active.svg

<svg width="100" height="100" viewBox="0 0 100 100" fill="none" xmlns="http://www.w3.org/2000/svg">
<rect x="10" y="10" width="80" height="80" rx="17" fill="#D3D1BB" stroke="#616353" stroke-width="4"/>
<path d="M46.5 20H53.5C54.6046 20 55.5 20.8954 55.5 22V24.001C55.5 26.2017 56.9326 27.9952 58.7604 28.7686C60.6248 29.5575 62.925 29.2967 64.4938 27.7279L65.9098 26.3119C66.6908 25.5308 67.9572 25.5308 68.7382 26.3119L73.688 31.2616C74.469 32.0427 74.469 33.309 73.688 34.09L71.9937 35.7843C70.5076 37.2704 70.2238 39.4392 70.9315 41.2285C71.655 43.0578 73.4217 44.5 75.6017 44.5H78C79.1046 44.5 80 45.3954 80 46.5V53.5C80 54.6046 79.1046 55.5 78 55.5H75.0491C73.0334 55.5 71.3732 56.7873 70.6439 58.4642C69.8872 60.2044 70.135 62.3569 71.5998 63.8216L73.688 65.9099C74.4691 66.6909 74.4691 67.9573 73.688 68.7383L68.7383 73.6881C67.9572 74.4691 66.6909 74.4691 65.9099 73.6881L63.5484 71.3266C62.1638 69.942 60.1384 69.6733 58.4709 70.3515C56.7943 71.0334 55.5 72.6666 55.5 74.6598V78C55.5 79.1046 54.6046 80 53.5 80H46.5C45.3954 80 44.5 79.1046 44.5 78V74.6599C44.5 72.6666 43.2057 71.0334 41.5291 70.3515C39.8615 69.6733 37.836 69.942 36.4514 71.3266L34.09 73.688C33.3089 74.4691 32.0426 74.4691 31.2616 73.688L26.3118 68.7383C25.5308 67.9572 25.5308 66.6909 26.3118 65.9099L28.4002 63.8215C29.865 62.3567 30.1128 60.2043 29.356 58.4642C28.6268 56.7873 26.9666 55.5 24.9509 55.5H22C20.8954 55.5 20 54.6046 20 53.5V46.5C20 45.3954 20.8954 44.5 22 44.5H24.3984C26.5783 44.5 28.345 43.0578 29.0685 41.2286C29.7762 39.4393 29.4924 37.2706 28.0063 35.7845L26.3119 34.0901C25.5308 33.309 25.5308 32.0427 26.3119 31.2617L31.2616 26.3119C32.0427 25.5309 33.309 25.5309 34.09 26.3119L35.506 27.7279C37.0749 29.2968 39.3751 29.5576 41.2396 28.7686C43.0674 27.9952 44.5 26.2017 44.5 24.0009V22C44.5 20.8954 45.3954 20 46.5 20ZM50 65C58.2843 65 65 58.2843 65 50C65 41.7157 58.2843 35 50 35C41.7157 35 35 41.7157 35 50C35 58.2843 41.7157 65 50 65Z" stroke="#616353" stroke-width="4"/>
</svg>

<svg width="100" height="100" fill="none" xmlns="http://www.w3.org/2000/svg"><rect x="10" y="10" width="80" height="80" rx="17" fill="#D3D1BB" stroke="#616353" stroke-width="4"/><path d="M46.5 20h7a2 2 0 0 1 2 2v2.001c0 2.2 1.433 3.994 3.26 4.768 1.865.789 4.165.528 5.734-1.041l1.416-1.416a2 2 0 0 1 2.828 0l4.95 4.95a2 2 0 0 1 0 2.828l-1.694 1.694c-1.486 1.486-1.77 3.655-1.063 5.444.724 1.83 2.49 3.272 4.67 3.272H78a2 2 0 0 1 2 2v7a2 2 0 0 1-2 2h-2.95c-2.017 0-3.677 1.287-4.406 2.964-.757 1.74-.509 3.893.956 5.358l2.088 2.088a2 2 0 0 1 0 2.828l-4.95 4.95a2 2 0 0 1-2.828 0l-2.362-2.361c-1.384-1.385-3.41-1.654-5.077-.975-1.677.681-2.971 2.315-2.971 4.308V78a2 2 0 0 1-2 2h-7a2 2 0 0 1-2-2v-3.34c0-1.993-1.294-3.627-2.97-4.308-1.669-.679-3.694-.41-5.079.975l-2.361 2.361a2 2 0 0 1-2.828 0l-4.95-4.95a2 2 0 0 1 0-2.828l2.088-2.088c1.465-1.465 1.713-3.618.956-5.358-.73-1.677-2.39-2.964-4.405-2.964H22a2 2 0 0 1-2-2v-7a2 2 0 0 1 2-2h2.398c2.18 0 3.947-1.442 4.67-3.271.708-1.79.424-3.958-1.062-5.444l-1.694-1.695a2 2 0 0 1 0-2.828l4.95-4.95a2 2 0 0 1 2.828 0l1.416 1.416c1.569 1.569 3.87 1.83 5.734 1.04 1.827-.773 3.26-2.566 3.26-4.767V22a2 2 0 0 1 2-2ZM50 65c8.284 0 15-6.716 15-15 0-8.284-6.716-15-15-15-8.284 0-15 6.716-15 15 0 8.284 6.716 15 15 15Z" stroke="#616353" stroke-width="4"/></svg>
